assets/Oncoming bus/Flat/oncoming_bus_flat.svg

<svg xmlns="http://www.w3.org/2000/svg" width="32" height="32" fill="none"><path fill="#321B41" d="M5.94 29h2.12c.52 0 .94-.42.94-.94v-4.11a.95.95 0 0 0-.95-.95H5.94c-.52 0-.94.43-.94.95v4.11c0 .52.42.94.94.94Zm18.01 0h2.11c.52 0 .94-.42.93-.94v-4.11c0-.52-.42-.94-.94-.94h-2.11c-.52 0-.94.42-.94.94v4.11c0 .52.42.94.95.94Z"/><path fill="#F9C23C" d="M25.58 26H6.42C5.64 26 5 25.37 5 24.58V19c2-.5 10.22-1.42 11-1.42 2.608 0 5.5.42 11 1.42v5.58c0 .79-.64 1.42-1.42 1.42Z"/><path fill="#321B41" d="M3.22 16c.43 0 .78-.35.78-.78V15h2v-2H4v-1.22c0-.43-.35-.78-.78-.78h-.44c-.43 0-.78.35-.78.78v3.44c0 .43.35.78.78.78h.44Zm26 0c.43 0 .78-.35.78-.78v-3.44c0-.43-.35-.78-.78-.78h-.44c-.43 0-.78.35-.78.78V13h-2v2h2v.22c0 .43.35.78.78.78h.44Z"/><path fill="#BEBEBE" d="M23.59 3H8.41C6.52 3 5 4.47 5 6.29V19h22V6.29C27 4.47 25.48 3 23.59 3Z"/><path fill="#00A6ED" d="M24.01 18H7.99c-.55 0-.99-.45-.99-.99V9l9-1 9 1v8.01c0 .54-.44.99-.99.99Z"/><path fill="#E6E6E6" d="M10.5 21h11c.28 0 .5-.22.5-.5s-.22-.5-.5-.5h-11c-.28 0-.5.23-.5.5 0 .28.22.5.5.5Zm2 2h7c.28 0 .5-.22.5-.5s-.22-.5-.5-.5h-7c-.28 0-.5.22-.5.5s.22.5.5.5Z"/><path fill="#fff" d="M7 20c.55 0 1 .45 1 1v2c0 .55-.45 1-1 1H5v-4h2Zm18 4c-.55 0-1-.45-1-1v-2c0-.55.45-1 1-1h2v4h-2Z"/><path fill="#433B6B" d="M25 9H7V6.99c0-.55.44-.99.99-.99h16.03c.54 0 .98.44.98.99V9Z"/></svg>

<svg width="32" height="32" viewBox="0 0 32 32" fill="none" xmlns="http://www.w3.org/2000/svg">
<path d="M5.94 29H8.06C8.58 29 9 28.58 9 28.06V23.95C9 23.43 8.58 23 8.05 23H5.94C5.42 23 5 23.43 5 23.95V28.06C5 28.58 5.42 29 5.94 29ZM23.95 29H26.06C26.58 29 27 28.58 26.99 28.06V23.95C26.99 23.43 26.57 23.01 26.05 23.01H23.94C23.42 23.01 23 23.43 23 23.95V28.06C23 28.58 23.42 29 23.95 29Z" fill="#321B41"/>
<path d="M25.58 25.9999H6.42C5.64 25.9999 5 25.3699 5 24.5799V18.9999C7 18.4999 15.22 17.58 16 17.58C18.6077 17.58 21.5 17.9999 27 18.9999V24.5799C27 25.3699 26.36 25.9999 25.58 25.9999Z" fill="#F9C23C"/>
<path d="M3.22 16C3.65 16 4 15.65 4 15.22V15H6V13H4V11.78C4 11.35 3.65 11 3.22 11H2.78C2.35 11 2 11.35 2 11.78V15.22C2 15.65 2.35 16 2.78 16H3.22ZM29.22 16C29.65 16 30 15.65 30 15.22V11.78C30 11.35 29.65 11 29.22 11H28.78C28.35 11 28 11.35 28 11.78V13H26V15H28V15.22C28 15.65 28.35 16 28.78 16H29.22Z" fill="#321B41"/>
<path d="M23.59 3H8.41C6.52 3 5 4.47 5 6.29V19H27V6.29C27 4.47 25.48 3 23.59 3Z" fill="#BEBEBE"/>
<path d="M24.01 18H7.99C7.44 18 7 17.55 7 17.01V9L16 8L25 9V17.01C25 17.55 24.56 18 24.01 18Z" fill="#00A6ED"/>
<path d="M10.5 21H21.5C21.78 21 22 20.78 22 20.5C22 20.22 21.78 20 21.5 20H10.5C10.22 20 10 20.23 10 20.5C10 20.78 10.22 21 10.5 21ZM12.5 23H19.5C19.78 23 20 22.78 20 22.5C20 22.22 19.78 22 19.5 22H12.5C12.22 22 12 22.22 12 22.5C12 22.78 12.22 23 12.5 23Z" fill="#E6E6E6"/>
<path d="M7 20C7.55 20 8 20.45 8 21V23C8 23.55 7.55 24 7 24H5V20H7ZM25 24C24.45 24 24 23.55 24 23V21C24 20.45 24.45 20 25 20H27V24H25Z" fill="white"/>
<path d="M25 9H7V6.99C7 6.44 7.44 6 7.99 6H24.02C24.56 6 25 6.44 25 6.99V9Z" fill="#433B6B"/>
</svg>
